public/icons/garden_icon.svg

<svg width="330" height="330" viewBox="0 0 330 330" fill="none" xmlns="http://www.w3.org/2000/svg">
<path d="M152.177 20.0057C152.811 19.9428 153.447 19.8958 154.083 19.8648C168.183 19.0935 182.006 23.9926 192.473 33.4723C204.422 44.3667 209.132 57.9432 209.903 73.6944C213.606 75.8241 223.885 84.8866 225.456 85.4343C225.781 82.9796 225.768 81.7095 227.281 79.6785C229.111 78.6348 230.725 78.1341 232.818 77.964C234.69 77.8128 265.188 77.7057 266.655 78.0383C268.822 78.5277 270.67 79.4962 271.83 81.4624C274.825 86.5447 273.869 100.65 272.306 106.323C270.187 114.014 264.971 118.27 258.255 122.048L258.375 223.483C267.995 223.449 277.637 223.279 287.246 223.787C288.166 235.989 288.317 249.765 287.289 261.977C285.821 279.41 276.62 291.096 263.773 301.87C267.998 301.825 274.889 300.75 278.745 301.974C280.836 302.638 282.815 303.634 283.795 305.693C284.328 306.812 284.119 306.934 283.717 308.094C282.56 308.908 281.502 309.241 280.098 309.365C267.238 310.499 253.64 309.631 240.714 309.638L162.916 309.636C152.633 309.644 87.6375 310.808 83.6069 308.929C82.1387 308.246 81.5236 307.921 81.0305 306.403C81.4133 305.343 81.5302 304.877 82.3686 304.115C85.7391 301.051 90.5599 301.822 94.7773 301.976C96.9789 298.585 99.4309 295.363 102.113 292.338C114.941 277.774 133.592 270.441 152.655 269.191L152.53 199.7C145.893 202.935 139.589 205.191 132.104 205.574C120.368 206.208 108.868 202.105 100.183 194.186C89.5453 184.484 86.2009 172.599 85.5429 158.726C82.6088 157.054 79.8152 155.147 77.1894 153.024C67.0122 144.861 60.6604 132.374 59.2877 119.48C57.8334 105.813 61.9335 92.1371 70.6657 81.5245C79.8245 70.2806 91.6867 65.1259 105.779 63.5693C107.508 55.2132 110.378 47.449 115.505 40.5395C124.554 28.3431 137.494 22.2941 152.177 20.0057Z" fill="black"/>
<path d="M148.93 28.3224C151.778 28.0753 154.665 27.7944 157.525 27.7615C169.211 27.661 180.46 32.206 188.796 40.3977C199.696 51.2386 201.815 63.7713 201.732 78.4234C207.292 81.3112 212.227 84.0515 216.7 88.5597C224.517 96.4029 228.848 107.063 228.717 118.135C228.535 131.722 221.909 140.684 212.572 149.686C214.069 159.964 214.201 169.294 209.022 178.656C204.697 186.617 197.351 192.504 188.636 194.987C178.497 197.795 169.296 195.286 160.339 190.343C160.454 178.027 160.239 165.689 160.181 153.371C165.595 148.278 190.387 126.878 192.047 122.152C191.596 120.344 191.133 119.579 189.668 118.421C183.084 118.472 165.604 137.534 160.131 142.659C160.078 132.774 162.055 108.509 159.746 100.131C159.275 98.4208 158.385 98.2574 156.971 97.4194C155.732 97.5134 154.894 97.2851 153.99 98.232C151.452 100.893 152.435 108.388 152.508 111.914L152.546 161.621C147.134 156.14 124.738 131.085 119.118 130.56C117.034 131.341 116.949 131.3 115.9 133.245C116.144 138.092 147.102 167.069 152.583 172.594L152.567 190.222C145.706 194.795 138.386 197.875 130.019 197.946C120.292 198.074 110.934 194.219 104.121 187.275C94.8669 177.873 93.2591 166.732 93.4693 154.162C89.24 151.82 84.9744 149.459 81.3315 146.244C72.7368 138.658 67.4253 128.24 66.7498 116.754C66.047 105.097 70.0916 93.6523 77.9621 85.0266C87.644 74.4159 98.9154 71.8155 112.621 71.1655C113.919 63.4171 115.321 55.9845 119.241 49.0544C125.843 37.3859 136.435 31.7419 148.93 28.3224Z" fill="#FED100"/>
<path d="M236.917 119.856C237.945 120.307 238.581 120.664 239.376 121.474C241.106 123.234 240.271 213.512 240.133 223.514C231.681 223.479 222.374 222.553 214.073 224.097C212.491 225.457 212.022 226.062 211.391 228.155C210.065 232.554 210.679 238.172 210.744 242.728C210.976 258.668 211.286 271.537 218.949 285.926C214.565 285.875 210.158 286.064 205.775 286.153C198.407 280.324 190.513 276.044 181.708 272.846C174.766 270.631 167.868 269.632 160.621 269.185L160.491 199.637C168.423 202.65 175.872 204.526 184.452 203.509C195.631 202.121 205.788 196.314 212.655 187.383C220.487 177.218 222.544 165.483 220.942 152.986C230.478 142.682 234.535 133.587 236.917 119.856Z" fill="#FEFEFE"/>
<path d="M258.398 231.142L279.623 231.157C279.648 244.534 280.986 258.771 277.484 271.793C272.211 286.018 262.017 293.851 249.265 300.953C242.812 297.49 236.794 293.861 231.601 288.599C215.984 272.772 218.753 251.504 218.855 231.155L240.035 231.156C239.925 236.569 239.126 243.146 240.952 248.31C241.146 248.856 241.335 249.407 241.535 249.951C242.845 253.512 244.684 255.993 248.203 257.655C249.063 257.662 249.988 257.823 250.772 257.452C254.115 255.871 255.849 253.086 257.055 249.723L257.253 249.162C259.271 243.54 258.539 237.029 258.398 231.142Z" fill="#FEFEFE"/>
<path d="M148.826 277.179C149.239 277.095 149.379 277.059 149.85 277.018C170.773 275.241 187.345 281.607 203.419 294.557C204.86 294.396 206.302 294.243 207.744 294.103C219.045 292.948 226.286 294.704 235.137 301.896L192.871 301.91L104.059 301.914C115.84 287.216 130.344 279.915 148.826 277.179Z" fill="#FED100"/>
<path d="M261.977 85.9482C263.028 85.8589 263.759 86.1313 264.749 86.4404C266.054 88.8397 265.403 92.7759 265.279 95.4842L237.179 95.4711C235.272 95.3865 234.741 95.6411 233.288 94.325C233.065 92.0018 232.566 89.7237 233.643 87.5668C238.861 83.8458 255.466 86.0055 261.977 85.9482Z" fill="#FED100"/>
<path d="M233.864 103.013C243.843 102.948 253.893 102.643 263.857 103.228L264.613 104.196C264.11 106.793 262.497 108.852 261.041 110.997C258.88 112.745 256.75 114.172 254.086 115.048C250.199 116.326 245.705 116.118 242.075 114.172C237.349 111.637 235.352 107.984 233.864 103.013Z" fill="#FEFEFE"/>
</svg>

<svg xmlns="http://www.w3.org/2000/svg" width="330" height="330" fill="none" viewBox="0 0 330 330"><path fill="#000" d="M152.177 20.006q.952-.095 1.906-.141a52.9 52.9 0 0 1 38.39 13.607c11.949 10.895 16.659 24.471 17.43 40.222 3.703 2.13 13.982 11.193 15.553 11.74.325-2.454.312-3.724 1.825-5.755 1.83-1.044 3.444-1.545 5.537-1.715 1.872-.151 32.37-.258 33.837.074 2.167.49 4.015 1.458 5.175 3.424 2.995 5.083 2.039 19.188.476 24.861-2.119 7.691-7.335 11.947-14.051 15.725l.12 101.435c9.62-.034 19.262-.204 28.871.304.92 12.202 1.071 25.978.043 38.19-1.468 17.433-10.669 29.119-23.516 39.893 4.225-.045 11.116-1.12 14.972.104 2.091.664 4.07 1.66 5.05 3.719.533 1.119.324 1.241-.078 2.401-1.157.814-2.215 1.147-3.619 1.271-12.86 1.134-26.458.266-39.384.273l-77.798-.002c-10.283.008-75.278 1.172-79.31-.707-1.467-.683-2.082-1.008-2.575-2.526.382-1.06.5-1.526 1.338-2.288 3.37-3.064 8.19-2.293 12.408-2.139a81 81 0 0 1 7.336-9.638c12.828-14.564 31.479-21.897 50.542-23.147l-.125-69.491c-6.637 3.235-12.941 5.491-20.426 5.874a43.87 43.87 0 0 1-31.921-11.388c-10.638-9.702-13.982-21.587-14.64-35.46a62.5 62.5 0 0 1-8.354-5.702c-10.177-8.163-16.529-20.65-17.901-33.544a51.2 51.2 0 0 1 11.378-37.955c9.159-11.244 21.02-16.4 35.113-17.956 1.729-8.356 4.599-16.12 9.726-23.03 9.049-12.196 21.989-18.245 36.672-20.533"/><path fill="#fed100" d="M148.93 28.322c2.848-.247 5.735-.528 8.595-.56a44.08 44.08 0 0 1 31.271 12.636c10.9 10.84 13.019 23.373 12.936 38.025 5.56 2.888 10.495 5.629 14.968 10.137a41.2 41.2 0 0 1 12.017 29.575c-.182 13.587-6.808 22.549-16.145 31.551 1.497 10.278 1.629 19.608-3.55 28.97a33.7 33.7 0 0 1-20.386 16.331c-10.139 2.808-19.34.299-28.297-4.644.115-12.316-.1-24.654-.158-36.972 5.414-5.093 30.206-26.493 31.866-31.219-.451-1.808-.914-2.573-2.379-3.731-6.584.051-24.064 19.113-29.537 24.238-.053-9.885 1.924-34.15-.385-42.528-.471-1.71-1.361-1.874-2.775-2.712-1.239.094-2.077-.134-2.981.813-2.538 2.661-1.555 10.156-1.482 13.682l.038 49.707c-5.412-5.481-27.808-30.536-33.428-31.061-2.084.781-2.169.74-3.218 2.685.244 4.847 31.202 33.824 36.683 39.349l-.016 17.628c-6.861 4.573-14.181 7.653-22.548 7.724a35.63 35.63 0 0 1-25.898-10.671c-9.254-9.402-10.862-20.543-10.652-33.113-4.229-2.342-8.495-4.703-12.137-7.918-8.595-7.586-13.907-18.004-14.582-29.49a43.2 43.2 0 0 1 11.212-31.727c9.682-10.611 20.953-13.211 34.659-13.862 1.298-7.748 2.7-15.18 6.62-22.11 6.602-11.67 17.194-17.313 29.689-20.733"/><path fill="#fefefe" d="M236.917 119.856c1.028.451 1.664.808 2.459 1.618 1.73 1.76.895 92.038.757 102.04-8.452-.035-17.759-.961-26.06.583-1.582 1.36-2.051 1.965-2.682 4.058-1.326 4.399-.712 10.017-.647 14.573.232 15.94.542 28.809 8.205 43.198-4.384-.051-8.791.138-13.174.227-7.368-5.829-15.262-10.109-24.067-13.307-6.942-2.215-13.84-3.214-21.087-3.661l-.13-69.548c7.932 3.013 15.381 4.889 23.961 3.872a42.12 42.12 0 0 0 28.203-16.126c7.832-10.165 9.889-21.9 8.287-34.397 9.536-10.304 13.593-19.399 15.975-33.13"/><path fill="#fefefe" d="m258.398 231.142 21.225.015c.025 13.377 1.363 27.614-2.139 40.636-5.273 14.225-15.467 22.058-28.219 29.16-6.453-3.463-12.471-7.092-17.664-12.354-15.617-15.827-12.848-37.095-12.746-57.444l21.18.001c-.11 5.413-.909 11.99.917 17.154.194.546.383 1.097.583 1.641 1.31 3.561 3.149 6.042 6.668 7.704.86.007 1.785.168 2.569-.203 3.343-1.581 5.077-4.366 6.283-7.729l.198-.561c2.018-5.622 1.286-12.133 1.145-18.02"/><path fill="#fed100" d="M148.826 277.179c.413-.084.553-.12 1.024-.161 20.923-1.777 37.495 4.589 53.569 17.539q2.162-.243 4.325-.454c11.301-1.155 18.542.601 27.393 7.793l-42.266.014-88.812.004c11.781-14.698 26.285-21.999 44.767-24.735M261.977 85.948c1.051-.09 1.782.183 2.772.492 1.305 2.4.654 6.336.53 9.044l-28.1-.013c-1.907-.085-2.438.17-3.891-1.146-.223-2.323-.722-4.601.355-6.758 5.218-3.721 21.823-1.561 28.334-1.619"/><path fill="#fefefe" d="M233.864 103.013c9.979-.065 20.029-.37 29.993.215l.756.968c-.503 2.597-2.116 4.656-3.572 6.801-2.161 1.748-4.291 3.175-6.955 4.051-3.887 1.278-8.381 1.07-12.011-.876-4.726-2.535-6.723-6.188-8.211-11.159"/></svg>
